X:1
T:Jolly Old Woman
M:6/8
L:1/8
R:Country Dance Tune and Jig
B:Elias Howe – Musician’s Omnibus Nos. 6 & 7 (Boston, 1880-1882, p. 619)
B:  http://ks4.imslp.net/files/imglnks/usimg/c/c7/IMSLP601433-PMLP562790-ONeill_Rare_Medium_M40_M8_v6.7_text.pdf
Z:AK/Fiddler’s Companion
K:Amin
E|EAA {B}A>GA|{GA}B2A G>AB|{B}c2B A>Bc|
{c}B>AB {a}g>^fg|e2d c>de|dBA GAB|{AB}c>BA GED|EAA A2:|
|:e|e^f^g a2c’|b2 (3c’/b/a/ =g2b|a2 (3b/a/g/ e2^f|
g2(3a/g/f/ f2 =f|e2 (3f/e/d/ c2e|dBA GAB|c>BA GED|EAA A2:|]

